( Mach3 CNC Laser Code )
( Chris' Circuits - http://ChrisCircuits.com )
( Kitchen Sink Electronics - http://KitchenSinkElectronics.com )
( SensorSleeve 1/10/2018 1:07:19 AM )
( T0 : 0.07 )
G21 G90 G91.1 G64 G40
G0 Z1.1
( T0 : 0.07 )
T0 M6
M8
( Profile3 )
G17
S1000
G0 X2.088 Y14.2754
G1 F300.0 Z0.9
M3
G1 F800.0 X2.0444 Y19.1656
G1 X2.0251 Y21.4579
G2 X1.7886 Y56.9884 I11450.8338 J93.9632
G1 X1.7773 Y59.2091
G2 X1.767 Y61.291 I2427.8405 J13.0075
G1 Y61.2911
G1 X1.7488 Y65.1946
G1 X1.7339 Y68.6102
G1 X1.7219 Y71.5989
G1 X1.7194 Y72.2527
G1 X1.7014 Y77.3194
G1 X1.69 Y81.1194
G1 X1.6769 Y86.8194
G1 X1.6703 Y92.5195
G1 X1.6695 Y94.1435
G1 X1.6668 Y100.2335
G1 X1.6665 Y102.5178
G1 X1.6694 Y106.5161
G3 Y106.5163 I-0.035 J0.0
G2 X1.6701 Y106.8908 I23.4742 J0.1448
G3 Y106.8911 I-0.035 J0.0003
G1 X1.6703 Y106.9819
G1 X1.6704 Y107.0721
G1 X1.6743 Y108.5027
G1 X1.6798 Y109.7548
G2 X1.6974 Y111.9465 I254.8489 J-0.9482
G1 X1.7085 Y112.7692
G1 X1.7146 Y113.1291
G1 X1.7212 Y113.4666
G1 X1.7364 Y114.0995
G1 X1.754 Y114.6534
G3 Y114.6536 I-0.035 J0.0011
G2 X1.7739 Y115.1375 I19.017 J-0.5418
G3 X1.774 Y115.1379 I-0.0349 J0.0019
G2 X1.8257 Y115.9841 I22.5813 J-0.9557
G1 X1.8538 Y116.3009
G1 X1.8842 Y116.5775
G2 X2.0512 Y117.5342 I8.9017 J-1.0615
G1 X2.1081 Y117.7708
G1 X2.2898 Y118.479
G1 F300.0 X2.2897 Y118.4786
G2 F800.0 X2.5476 Y119.4029 I63.9495 J-17.3467
G3 Y119.403 I-0.0336 J0.0097
G2 X2.6096 Y119.6191 I27.7563 J-7.8437
G3 Y119.6192 I-0.0336 J0.0098
G1 X2.6709 Y119.8321
G2 X3.6479 Y123.1812 I545.6356 J-157.3553
G1 X4.3877 Y125.6911
G1 X4.6662 Y126.632
G1 X5.1549 Y128.2781
G1 X5.892 Y130.7461
G1 X6.2636 Y131.9791
G3 X6.2638 Y131.9797 I-0.0335 J0.0101
G2 X6.3101 Y132.1325 I3.9441 J-1.1121
G3 X6.3103 Y132.1332 I-0.0333 J0.0108
G1 X6.4744 Y132.6721
G1 X6.6403 Y133.2105
G1 F300.0 Y133.2103
G1 F800.0 X6.6924 Y133.3766
G1 X6.7436 Y133.5375
G1 X6.7939 Y133.6933
G1 X6.8436 Y133.8442
G3 X6.8437 Y133.8443 I-0.0332 J0.011
G2 X7.0465 Y134.4248 I13.0223 J-4.2235
G1 X7.1428 Y134.6774
G2 X7.3413 Y135.1432 I9.6735 J-3.8452
G2 X7.542 Y135.538 I5.3249 J-2.4602
G3 X7.5421 Y135.5381 I-0.0306 J0.017
G2 X7.9834 Y136.1712 I3.2414 J-1.7891
G2 X8.4016 Y136.5685 I2.3781 J-2.0841
G1 X8.4443 Y136.6019
G2 X9.1563 Y137.0465 I2.864 J-3.7943
G3 X9.1568 Y137.0467 I-0.0158 J0.0312
G2 X9.5347 Y137.2318 I3.1456 J-5.9462
G3 X9.5351 Y137.2319 I-0.0144 J0.0319
G2 X9.9205 Y137.4032 I5.0771 J-10.91
G1 F300.0 X9.9236 Y137.4046
G2 F800.0 X9.9353 Y137.4096 I0.0324 J-0.0595
G3 X9.9413 Y137.4122 I-0.0107 J0.0333
G2 X9.9529 Y137.4172 I0.0322 J-0.0591
G3 X9.9589 Y137.4197 I-0.0107 J0.0333
G2 X9.9704 Y137.4247 I0.0319 J-0.0588
G3 X9.9764 Y137.4272 I-0.0107 J0.0333
G2 X9.9879 Y137.4321 I0.0317 J-0.0584
G3 X9.9939 Y137.4347 I-0.0107 J0.0333
G2 X10.0053 Y137.4396 I0.0315 J-0.0581
G3 X10.0113 Y137.4421 I-0.0106 J0.0333
G2 X10.0227 Y137.4469 I0.0313 J-0.0577
G3 X10.0287 Y137.4495 I-0.0106 J0.0333
G2 X10.04 Y137.4543 I0.031 J-0.0574
G3 X10.0429 Y137.4554 I-0.0106 J0.0334
G1 X10.3183 Y137.5709
G1 X10.5783 Y137.6762
G3 X10.581 Y137.6775 I-0.0131 J0.0324
G2 X10.5902 Y137.6811 I0.024 J-0.0471
G3 X10.5938 Y137.6824 I-0.0098 J0.0336
G2 X10.8373 Y137.7761 I2.1113 J-5.1231
G3 X10.838 Y137.7764 I-0.0118 J0.033
G2 X11.3019 Y137.9354 I2.3824 J-6.1949
G3 X11.3022 I-0.0101 J0.0335
G2 X11.7172 Y138.044 I1.4382 J-4.6497
G3 X11.7174 I-0.0074 J0.0342
G2 X12.4596 Y138.1115 I0.6379 J-2.9002
G2 X13.0118 Y138.0363 I-0.1542 J-3.1939
G1 X13.1139 Y138.0119
G2 X13.8617 Y137.7666 I-1.7216 J-6.5088
G1 X14.0456 Y137.694
G2 X14.5916 Y137.4642 I-6.4127 J-16.0004
G1 F300.0 X14.5931 Y137.4636
G2 F800.0 X14.6537 Y137.4372 I-0.293 J-0.7571
G3 X14.6563 Y137.4361 I0.0152 J0.0315
G2 X14.7164 Y137.4099 I-0.2816 J-0.7284
G3 X14.7177 Y137.4093 I0.0153 J0.0315
G2 X15.2124 Y137.188 I-10.9594 J-25.1567
G1 X15.4417 Y137.0783
G2 X15.8724 Y136.8452 I-2.8845 J-5.8443
G1 X15.9695 Y136.7849
G2 X16.3295 Y136.5196 I-1.9906 J-3.0783
G2 X16.8765 Y135.8964 I-1.9257 J-2.2418
G2 X17.2286 Y135.264 I-4.2647 J-2.7889
G3 X17.2288 Y135.2635 I0.0317 J0.0148
G2 X17.3587 Y134.9751 I-5.0355 J-2.4402
G3 X17.3588 Y134.9749 I0.0323 J0.0135
G2 X17.5788 Y134.422 I-13.3724 J-5.642
G1 X17.6682 Y134.177
G3 X17.6683 Y134.1766 I0.0329 J0.012
G2 X17.7087 Y134.0626 I-2.8526 J-1.0741
G3 X17.7088 Y134.0623 I0.0332 J0.011
G1 X17.8617 Y133.6138
G1 X17.9265 Y133.417
G2 X18.3894 Y131.9331 I-63.5381 J-20.636
G1 X18.3895 Y131.933
G1 X18.5017 Y131.5607
G1 X18.6689 Y131.002
G1 X18.8353 Y130.443
G1 X19.8857 Y126.9158
G1 X19.9514 Y126.6953
G1 X20.4445 Y125.0421
G1 X20.5062 Y124.8355
G1 X20.9381 Y123.3892
G1 X21.3047 Y122.1592
G1 X21.6225 Y121.0816
G1 X21.8952 Y120.1368
G2 X22.1255 Y119.3075 I-174.186 J-48.8245
G2 X22.4888 Y117.8469 I-28.6468 J-7.9014
G2 X22.6982 Y116.7387 I-18.0832 J-3.9913
G1 X22.7293 Y116.5294
G1 X22.7429 Y116.4313
G2 X22.891 Y114.9017 I-22.4958 J-2.9504
G1 X22.9154 Y114.5178
G1 X22.9474 Y113.9418
G1 X22.9766 Y113.3655
G1 F300.0 Y113.3659
G2 F800.0 X23.0057 Y112.2796 I-47.7218 J-1.8215
G1 X23.0196 Y111.2093
G1 X23.0209 Y111.0776
G1 X23.0255 Y110.5518
G1 X23.0325 Y109.5084
G2 X23.0447 Y105.4 I-813.2654 J-4.4708
G1 Y105.3999
G1 X23.0457 Y103.474
G1 X23.0428 Y99.7425
G1 X23.0359 Y96.2442
G1 X23.0158 Y89.685
G1 X22.9927 Y83.9457
G1 X22.9693 Y78.9237
G1 X22.9229 Y70.1354
G1 X22.904 Y66.8397
G1 X22.8323 Y55.3051
G1 X22.7536 Y43.7705
G1 X22.696 Y35.5216
G1 Y35.5215
G1 X22.6749 Y32.4282
G3 X22.6658 Y31.0748 I373.4554 J-3.1928
G1 X22.6322 Y25.9997
G1 X22.584 Y18.3872
G1 Y18.3871
G1 X22.5833 Y18.2682
G1 X22.5826 Y18.151
G1 X22.5612 Y14.4628
G1 X22.5562 Y13.5407
G1 X22.5494 Y12.1576
G1 X22.5447 Y10.7745
G1 F300.0 Y10.7744
G1 F800.0 X22.5429 Y6.934
M5
G0 Z1.1
G0 X22.5779 Y6.969
G1 F300.0 Z0.9
M3
G1 F800.0 X12.3495
G1 X2.1211
M5
G0 Z1.1
G0 X2.1561 Y6.9343
G1 F300.0 Z0.9
M3
G1 F800.0 X2.088 Y14.2754
M5
G0 Z1.1
( Profile2 )
S1000
G0 X48.1637 Y16.6714
G1 F300.0 Z0.9
M3
G1 F800.0 X48.1997 Y16.8433
G3 X48.1998 Y16.8437 I-0.0343 J0.0072
G1 X48.4644 Y18.1782
G1 Y18.1783
G1 X48.6609 Y19.1796
G1 X49.2467 Y22.1843
G1 X50.272 Y27.4615
M5
G0 Z1.1
G0 X50.238 Y27.5032
G1 F300.0 Z0.9
M3
G1 F800.0 X47.5447 Y27.5311
G1 F300.0 X47.5446
G1 F800.0 X46.8637 Y27.5366
G1 X46.8636
G1 X46.8263 Y27.5369
G1 X46.8262
G1 X45.6438 Y27.5417
G3 X45.6437 I-0.0001 J-0.035
G1 X44.7569 Y27.5426
G3 X42.0962 Y27.5311 I-0.0267 J-302.1174
G1 X39.3417 Y27.5032
M5
G0 Z1.1
G0 X39.3077 Y27.4615
G1 F300.0 Z0.9
M3
G1 F800.0 X40.3778 Y21.9753
G1 X41.453 Y16.4629
G1 F300.0 X41.4832 Y16.4349
G3 F800.0 X41.5366 Y16.4301 I0.1027 J0.8523
G3 X41.5377 I0.002 J0.0349
G1 X41.7404 Y16.4246
G3 X41.7409 I0.0009 J0.035
G1 X42.5011 Y16.4158
G3 X42.5012 I0.0004 J0.035
G3 X44.7822 Y16.4085 I1.8666 J225.9485
G1 F300.0 X44.7821
G1 F800.0 X48.0719
G1 F300.0 X48.1059 Y16.4351
G1 F800.0 X48.1635 Y16.6703
M5
G0 Z1.1
( Profile1 )
S1000
G0 X38.5433 Y13.5399
G1 F300.0 Z0.9
M3
G3 F800.0 X38.7875 Y13.9737 I-0.6196 J0.6343
G3 Y13.9738 I-0.0341 J0.0079
G3 X38.6325 Y14.6935 I-0.8476 J0.194
G3 X38.6324 Y14.6936 I-0.0279 J-0.0212
G3 X37.9681 Y15.0155 I-0.6515 J-0.4983
G1 F300.0 X37.968
G3 F800.0 X37.6601 Y14.9513 I0.017 J-0.8521
G3 X37.2742 Y14.6899 I0.4206 J-1.0366
G3 X37.1329 Y14.4971 I0.6197 J-0.6023
G3 X37.0684 Y14.2594 I0.4487 J-0.2494
G1 F300.0 Y14.2588
G3 F800.0 X37.1933 Y13.7615 I1.0297 J-0.0056
G3 X37.8099 Y13.3054 I0.7973 J0.4328
G3 X37.8103 Y13.3053 I0.007 J0.0343
G3 X38.5442 Y13.5408 I0.1506 J0.7917
M5
G0 Z1.1
G0 X37.8792 Y17.3628
G1 F300.0 Z0.9
M3
G3 F800.0 X38.0076 Y17.4994 I-1.1253 J1.1863
G3 X38.0532 Y17.5559 I-0.3921 J0.3627
G3 X38.1593 Y17.7932 I-0.3891 J0.3163
G3 X38.1595 Y17.7955 I-0.0346 J0.0055
G3 X38.1421 Y18.0492 I-0.7927 J0.073
G1 F300.0 X38.1425 Y18.0476
G3 F800.0 X38.0349 Y18.3483 I-0.975 J-0.1793
G3 X37.6157 Y18.716 I-0.7182 J-0.3959
G1 Y18.7161
G3 X36.8043 Y18.6278 I-0.321 J-0.8231
G3 X36.8041 Y18.6277 I0.0194 J-0.0291
G3 X36.5288 Y18.3064 I0.446 J-0.6609
G3 X36.5286 Y18.3062 I0.0317 J-0.0149
G3 X36.4414 Y17.8954 I0.8632 J-0.398
G1 F300.0 Y17.8962
G3 F800.0 X36.4515 Y17.718 I1.3554 J-0.0122
G3 X36.5413 Y17.4568 I0.6198 J0.0671
G3 X36.542 Y17.4558 I0.0298 J0.0184
G3 X36.7311 Y17.2588 I0.6516 J0.4362
G1 F300.0 X36.7298 Y17.2598
G3 F800.0 X37.0053 Y17.096 I0.7109 J0.8823
G3 X37.4913 Y17.092 I0.2479 J0.5939
G3 X37.701 Y17.2088 I-0.3279 J0.8355
G3 X37.8803 Y17.3638 I-0.7725 J1.0744
M5
G0 Z1.1
G0 X42.7989 Y11.0863
G1 F300.0 Z0.9
M3
G3 F800.0 X42.3054 Y10.9465 I-0.0097 J-0.9071
G3 X42.3052 Y10.9464 I0.0187 J-0.0296
G3 X41.911 Y10.2968 I0.4635 J-0.7257
G3 Y10.2965 I0.0349 J-0.0031
G3 X42.214 Y9.5974 I0.8053 J-0.0662
G1 F300.0 X42.2138 Y9.5976
G3 F800.0 X42.4976 Y9.4525 I0.4908 J0.6099
G3 X42.9662 Y9.425 I0.2974 J1.0603
G3 X43.1958 Y9.4913 I-0.1341 J0.8954
G3 X43.3978 Y9.6259 I-0.2568 J0.604
G1 F300.0 X43.3986 Y9.6267
G3 F800.0 X43.5647 Y9.9094 I-0.5112 J0.4905
G3 X43.6001 Y10.387 I-1.0042 J0.3146
G3 X43.4145 Y10.8313 I-0.9141 J-0.1211
G1 F300.0 X43.4147 Y10.8309
G3 F800.0 X43.1353 Y11.0378 I-0.493 J-0.3738
G3 X43.1346 Y11.0381 I-0.0121 J-0.0328
G3 X42.9672 Y11.0767 I-0.2709 J-0.7904
G3 X42.9663 Y11.0768 I-0.0043 J-0.0347
G3 X42.7991 Y11.0863 I-0.1968 J-2.0033
M5
G0 Z1.1
G0 X45.9509 Y10.2475
G1 F300.0 Z0.9
M3
G3 F800.0 X46.4966 Y9.4622 I0.8207 J-0.012
G3 X47.4265 Y9.6741 I0.302 J0.8208
G1 F300.0 X47.4258 Y9.6734
G3 F800.0 X47.6098 Y9.9225 I-0.6645 J0.6833
G3 X47.6595 Y10.3866 I-0.5805 J0.297
G3 X47.5701 Y10.6006 I-0.8152 J-0.2151
G3 X47.4366 Y10.7862 I-1.0811 J-0.6364
G1 F300.0 X47.4371 Y10.7857
G3 F800.0 X47.0116 Y11.068 I-0.6853 J-0.5711
G3 X47.0113 Y11.0681 I-0.0102 J-0.0335
G3 X45.9509 Y10.2457 I-0.235 J-0.7919
M5
G0 Z1.1
G0 X49.8485 Y8.3821
G1 F300.0 Z0.9
M3
G3 F800.0 X49.6441 Y8.2516 I0.5166 J-1.0338
G1 Y8.2515
G3 X49.4397 Y7.9419 I0.3775 J-0.4715
G3 X49.4395 Y7.9412 I0.0337 J-0.0094
G3 X49.3994 Y7.5844 I1.2646 J-0.3229
G1 F300.0 Y7.5854
G3 F800.0 X49.5747 Y7.1099 I0.7252 J-0.0027
G1 Y7.1098
G3 X49.874 Y6.8827 I0.6838 J0.5901
G3 X50.4279 Y6.7997 I0.4116 J0.8574
G3 X50.9173 Y7.0832 I-0.1118 J0.7571
G1 F300.0 X50.917 Y7.0828
G3 F800.0 X51.0658 Y7.3235 I-0.8584 J0.6971
G3 X51.117 Y7.7514 I-0.6158 J0.2908
G3 X51.0428 Y7.9541 I-0.7073 J-0.144
G3 X50.9261 Y8.1321 I-0.8785 J-0.4488
G1 F300.0 X50.9267 Y8.1313
G3 F800.0 X50.7113 Y8.3388 I-0.8121 J-0.6276
G3 X50.2848 Y8.4865 I-0.4578 J-0.6319
G3 X50.2842 Y8.4866 I-0.0014 J-0.035
G3 X49.8475 Y8.3816 I-0.02 J-0.8777
M5
G0 Z1.1
G0 X51.9926 Y13.3926
G1 F300.0 Z0.9
M3
G3 F800.0 X52.4689 Y14.0078 I-0.341 J0.7561
G3 X52.233 Y14.7489 I-0.8237 J0.1459
G1 F300.0 X52.2335 Y14.7484
G3 F800.0 X51.6055 Y15.0231 I-0.6513 J-0.6337
G3 X51.6053 I-0.0009 J-0.035
G3 X50.9819 Y14.7267 I-0.0144 J-0.7733
G1 F300.0 X50.9823 Y14.7272
G3 F800.0 X50.7625 Y14.1924 I0.7741 J-0.6308
G3 X50.7624 Y14.1921 I0.0348 J-0.0034
G3 X51.1401 Y13.424 I0.8256 J-0.0709
G3 X51.1404 Y13.4238 I0.0189 J0.0294
G3 X51.5643 Y13.2982 I0.4359 J0.6927
G3 X51.5646 I0.0005 J0.035
G3 X51.9931 Y13.3928 I0.0055 J0.9925
M5
G0 Z1.1
G0 X51.7475 Y17.2919
G1 F300.0 Z0.9
M3
G3 F800.0 X51.9926 Y17.1251 I0.8002 J0.9129
G3 X52.2104 Y17.0542 I0.3235 J0.624
G3 X52.2105 I0.0053 J0.0346
G3 X52.5497 Y17.0915 I0.0989 J0.6626
G3 X52.5499 I-0.0126 J0.0327
G3 X52.8386 Y17.2599 I-0.3962 J1.0111
G1 F300.0 X52.838 Y17.2594
G3 F800.0 X53.115 Y17.6915 I-0.4714 J0.607
G1 Y17.6916
G3 X53.1179 Y18.0745 I-0.8554 J0.1979
G3 X52.837 Y18.5706 I-0.911 J-0.1882
G1 Y18.5707
G3 X52.3013 Y18.7775 I-0.5321 J-0.5811
G1 F300.0 X52.3019
G3 F800.0 X51.8067 Y18.639 I-0.0111 J-0.9151
G3 X51.8064 Y18.6388 I0.0185 J-0.0297
G3 X51.4303 Y17.9791 I0.4397 J-0.6877
G3 X51.5102 Y17.5977 I0.8195 J-0.0274
G1 X51.5103 Y17.5976
G3 X51.748 Y17.2914 I0.8338 J0.402
M5
G0 Z1.1
G0 X39.6209 Y8.4151
G1 F300.0 Z0.9
M3
G3 F800.0 X38.8216 Y8.3096 I-0.2929 J-0.8624
G3 X38.5354 Y8.0079 I0.4973 J-0.7582
G3 X38.4269 Y7.604 I0.6882 J-0.4015
G1 F300.0 Y7.6037
G3 F800.0 X38.449 Y7.4591 I0.5175 J0.0051
G3 X38.4491 Y7.4587 I0.0335 J0.0101
G3 X38.5498 Y7.235 I0.9984 J0.3148
G3 X38.5499 Y7.2348 I0.03 J0.018
G3 X38.7824 Y6.9526 I1.0847 J0.6568
G3 X38.9315 Y6.8414 I0.6298 J0.6882
G3 X39.1109 Y6.7717 I0.2683 J0.4255
G1 F300.0 X39.1123 Y6.7715
G3 F800.0 X39.3747 Y6.7691 I0.1407 J1.0286
G3 X39.3748 I-0.0041 J0.0348
G3 X39.7512 Y6.8752 I-0.1541 J1.2675
G3 X39.7517 Y6.8754 I-0.0145 J0.0318
G3 X39.9226 Y6.9763 I-0.4826 J1.0132
G3 X40.0619 Y7.1296 I-0.2846 J0.3984
G1 F300.0 X40.0622 Y7.1302
G3 F800.0 X40.1408 Y7.8725 I-0.845 J0.4648
G3 X39.6212 Y8.415 I-0.7909 J-0.2376
M5
G0 Z1.1
( Profile4 )
S1000
G0 X35.6817 Y2.8449
G1 F300.0 Z0.9
M3
G1 F800.0 X34.8339 Y4.1709
G1 F300.0 X34.8394 Y4.152
G1 F800.0 Y7.5285
G1 Y10.905
M5
G0 Z1.1
G0 X34.8044 Y10.94
G1 F300.0 Z0.9
M3
G1 F800.0 X32.0272
G1 X29.25
G1 F300.0 X29.2695 Y10.934
G1 F800.0 X27.1391 Y12.3709
G1 X25.0088 Y13.8077
G1 F300.0 X25.0242 Y13.7787
G1 F800.0 X25.0286 Y18.9514
G1 X25.0331 Y24.1242
G1 F300.0 X25.0226 Y24.0993
G1 F800.0 X29.9174 Y28.9063
G1 X34.8122 Y33.7133
G1 F300.0 X34.8227 Y33.7381
G1 F800.0 X34.831 Y37.3556
G1 X34.8394 Y40.973
G1 F300.0 X34.8163 Y41.006
G1 F800.0 X33.9541 Y41.3171
G1 F300.0 X33.954
G1 F800.0 X33.3474 Y41.533
G1 X33.3473 Y41.5331
G1 X32.816 Y41.7209
G1 X30.956 Y42.376
G1 X29.0952 Y43.0292
G1 X25.0987 Y44.4303
G1 F300.0 X25.1222 Y44.397
G1 F800.0 X25.1476 Y48.5227
G1 X25.1731 Y52.6484
G1 F300.0 X25.1503 Y52.6158
G1 F800.0 X29.9221 Y54.388
G1 X30.2307 Y54.5026
G1 X30.2308
G1 X31.3881 Y54.9331
G1 X31.8224 Y55.0953
G1 X31.8225
G1 X32.2026 Y55.2378
G1 X32.8675 Y55.4892
G3 X32.8677 I-0.0124 J0.0327
G1 X33.1173 Y55.5848
G3 X33.1174 Y55.5849 I-0.0125 J0.0327
G1 X33.3358 Y55.6694
G3 X33.3359 I-0.0126 J0.0326
G1 X33.5266 Y55.7442
G3 X33.6113 Y55.7778 I-0.5267 J1.4517
G3 X33.9241 Y55.9048 I-6.6756 J16.8872
G3 X34.1598 Y56.0057 I-1.7944 J4.519
G3 X34.3353 Y56.0865 I-3.4485 J7.7185
G3 X34.5951 Y56.231 I-0.8089 J1.7605
G3 X34.7143 Y56.3384 I-0.2946 J0.4467
G3 X34.7156 Y56.3401 I-0.0271 J0.0222
G3 X34.7777 Y56.4951 I-0.2779 J0.2013
G1 F300.0 Y56.4949
G3 F800.0 X34.7892 Y56.6103 I-1.4026 J0.1985
G3 X34.8 Y56.8307 I-6.0839 J0.4086
G3 X34.8316 Y58.4773 I-73.0273 J2.2264
G1 X34.8375 Y59.3004
G3 Y59.3005 I-0.035 J0.0002
G1 X34.8394 Y60.1235
G1 F300.0 Y60.1236
G1 F800.0 Y63.4406
G1 F300.0 X34.8163 Y63.4735
G1 F800.0 X33.9542 Y63.7852
G1 F300.0 X33.954
G1 F800.0 X33.3474 Y64.0013
G1 X33.3473 Y64.0014
G1 X32.816 Y64.1892
G1 Y64.1893
G1 X30.9559 Y64.8443
G1 X30.9558
G1 X29.095 Y65.4974
G1 F300.0 X29.0949
G1 F800.0 X25.0982 Y66.8978
G1 F300.0 X25.1216 Y66.8644
G1 F800.0 X25.1474 Y69.9326
G1 X25.1731 Y73.0007
G1 F300.0 X25.1498 Y72.968
G1 F800.0 X29.9568 Y74.6675
G1 X34.7638 Y76.3671
G1 F300.0 X34.7871 Y76.3998
G1 F800.0 X34.8145 Y80.2621
G1 X34.8419 Y84.1244
G1 F300.0 X34.8185 Y84.1577
G1 F800.0 X29.944 Y85.8751
G1 X25.0695 Y87.5924
G1 F300.0 X25.0928 Y87.5592
G1 F800.0 X25.1135 Y91.5284
G1 F300.0 Y91.5283
G1 F800.0 X25.1194 Y92.4057
G1 X25.1228 Y92.7896
G1 X25.1245 Y92.9696
G1 X25.1405 Y94.3641
G2 X25.1723 Y96.4555 I290.4632 J-3.3735
G3 Y96.4557 I-0.035 J0.0007
G2 X25.1924 Y97.5011 I118.1423 J-1.7481
G1 X25.2172 Y98.5468
G1 F300.0 Y98.5467
G1 F800.0 X25.3002 Y101.5965
G1 F300.0 X25.2915 Y101.5743
G1 F800.0 X25.6982 Y102.0338
G1 F300.0 X25.6978 Y102.0334
G1 F800.0 X26.2552 Y102.6452
G1 X28.2159 Y104.7773
G1 X28.7066 Y105.3098
G1 X30.1799 Y106.9066
G1 F300.0 X30.1798
G1 F800.0 X34.2553 Y111.3204
G1 F300.0 X34.2646 Y111.3432
G1 F800.0 X34.3322 Y113.8177
G1 F300.0 Y113.8176
G1 F800.0 X34.3444 Y114.2261
G2 X34.4102 Y115.6535 I41.5845 J-1.2015
G1 X34.4223 Y115.8318
G1 X34.4251 Y115.8707
G1 X34.4493 Y116.1727
G2 X34.4967 Y116.6236 I10.5027 J-0.8763
G3 X34.4968 Y116.6239 I-0.0347 J0.0044
G2 X34.5694 Y117.0698 I4.9919 J-0.5848
G1 F300.0 X34.5693 Y117.0694
G2 F800.0 X34.779 Y117.9504 I28.0688 J-6.2139
G1 X34.8318 Y118.1561
G1 X34.9384 Y118.5604
G1 X35.0443 Y118.9514
G1 X35.2548 Y119.7076
G1 X35.3553 Y120.0615
G1 X35.5525 Y120.7467
G1 X35.9283 Y122.0297
G2 X37.2747 Y126.5112 I603.9468 J-178.9994
G1 X37.9564 Y128.7496
G1 X38.2984 Y129.8684
G1 X38.6408 Y130.987
G1 F300.0 Y130.9871
G1 F800.0 X39.5247 Y133.8855
G1 X39.5248 Y133.8856
G1 X39.5523 Y133.9762
G1 X39.6588 Y134.3274
G1 X40.0307 Y135.5567
G1 Y135.5568
G1 X40.3996 Y136.787
G1 F300.0 X40.3997 Y136.7871
G1 F800.0 X40.9512 Y138.6463
G1 F300.0 X40.9526 Y138.6561
G1 F800.0 X41.005 Y155.6896
G1 X41.0189 Y160.0713
G1 X41.0307 Y163.3577
G1 X41.0358 Y164.5901
G1 X41.0382 Y165.1294
G1 X41.0489 Y167.1514
G1 X41.0596 Y168.6681
G1 X41.0706 Y169.8057
G1 X41.082 Y170.6591
G1 X41.0875 Y170.9792
G1 Y170.9793
G2 X41.0996 Y171.5392 I40.6137 J-0.5982
G1 X41.1054 Y171.7495
G3 Y171.7496 I-0.035 J0.001
G2 X41.1363 Y172.4837 I19.0104 J-0.4326
G1 X41.1494 Y172.6673
G2 X41.1799 Y172.9406 I5.7879 J-0.5084
G2 X41.2457 Y173.2014 I1.1701 J-0.1565
G1 F300.0 X41.2455 Y173.2009
G2 F800.0 X41.5198 Y173.7199 I2.5319 J-1.0063
G3 X41.5199 Y173.72 I-0.029 J0.0196
G2 X42.0904 Y174.3936 I3.2452 J-2.1697
G3 X42.0919 Y174.3952 I-0.024 J0.0255
G2 X42.1089 Y174.4111 I0.1278 J-0.1201
G3 X42.1103 Y174.4122 I-0.0221 J0.0271
G2 X42.2726 Y174.5535 I4.3013 J-4.7773
G2 X42.8099 Y174.9003 I1.6668 J-1.9929
G1 F300.0 X42.8093 Y174.9
G2 F800.0 X43.0409 Y174.9988 I1.926 J-4.1927
G2 X43.4632 Y175.1004 I0.6311 J-1.6941
G3 X43.4633 Y175.1005 I-0.004 J0.0348
G1 X43.5042 Y175.1054
G2 X43.8224 Y175.1289 I0.6046 J-6.0252
G2 X44.062 Y175.1365 I0.3593 J-7.5414
G1 X44.2427 Y175.1395
G3 X44.243 I-0.0006 J0.035
G2 X44.5128 Y175.1415 I0.1962 J-8.2195
G3 X44.5132 I0.0003 J0.035
G1 X44.7842 Y175.1419
G1 F300.0 X44.7841
G1 F800.0 X45.0361 Y175.1415
G1 X45.0911 Y175.1413
G1 X45.5188 Y175.1362
G2 X45.8386 Y175.1242 I-0.1592 J-8.4596
G1 X45.9589 Y175.1157
G3 X45.9592 I0.0024 J0.0349
G2 X46.3699 Y175.0494 I-0.1363 J-2.1514
G3 X46.3704 Y175.0493 I0.0089 J0.0339
G2 X46.4683 Y175.0197 I-0.2484 J-0.9982
G3 X46.4695 Y175.0193 I0.0118 J0.033
G2 X46.5418 Y174.9934 I-0.3153 J-0.9931
G3 X46.5421 Y174.9933 I0.013 J0.0325
G2 X46.7587 Y174.9001 I-1.2086 J-3.1085
G1 F300.0 X46.7583 Y174.9003
G2 F800.0 X47.2545 Y174.5866 I-1.1429 J-2.3572
G2 X47.8753 Y173.9594 I-2.4033 J-2.9996
G3 X47.8755 Y173.9592 I0.0275 J0.0216
G2 X48.1265 Y173.5959 I-2.5056 J-1.9995
G3 X48.1267 Y173.5955 I0.0301 J0.0179
G2 X48.3224 Y173.201 I-2.1756 J-1.325
G1 F300.0 X48.3221 Y173.2017
G2 F800.0 X48.3876 Y172.942 I-1.1972 J-0.4399
G1 X48.4049 Y172.8087
G2 X48.4274 Y172.5442 I-4.775 J-0.5407
G1 X48.4423 Y172.2812
G2 X48.4532 Y172.023 I-11.3535 J-0.6066
G1 X48.4687 Y171.5128
G2 X48.4877 Y170.5246 I-66.3735 J-1.7707
G1 Y170.5245
G1 X48.491 Y170.2927
G1 X48.5016 Y169.3801
G1 X48.5057 Y168.9523
G1 X48.5123 Y168.1235
G1 X48.5222 Y166.5693
G1 X48.5291 Y165.2093
G1 X48.5477 Y160.4495
G1 X48.5555 Y158.0696
G1 X48.563 Y155.6896
G1 X48.6156 Y138.6561
G1 F300.0 X48.6171 Y138.6463
G1 F800.0 X49.2063 Y136.6608
G1 F300.0 Y136.6607
G1 F800.0 X49.3587 Y136.1507
G3 X49.4307 Y135.9113 I11.1048 J3.2085
G1 X49.9906 Y134.0601
G1 Y134.06
G1 X50.0959 Y133.713
G1 X50.4914 Y132.4118
G1 Y132.4117
G1 X51.6821 Y128.5095
G1 X52.8365 Y124.7306
G1 X53.052 Y124.0208
G1 X53.0521 Y124.0207
G2 X53.4538 Y122.6888 I-208.7788 J-63.6995
G1 X53.8011 Y121.5211
G1 X53.8763 Y121.2654
G1 X53.9487 Y121.0174
G1 X54.0185 Y120.777
G1 X54.0186 Y120.7769
G2 X54.5389 Y118.9088 I-77.3012 J-22.5377
G1 X54.6303 Y118.5565
G1 X54.7131 Y118.2256
G1 X54.7877 Y117.9146
G2 X54.9177 Y117.3294 I-28.9035 J-6.7264
G2 X55.1008 Y116.2974 I-15.4529 J-3.2742
G2 X55.2331 Y114.7319 I-14.7362 J-2.0333
G3 Y114.7317 I0.035 J0.0011
G2 X55.2492 Y113.9455 I-26.5657 J-0.9394
G1 Y113.9454
G1 X55.2542 Y113.158
G1 F300.0 Y113.1581
G1 F800.0 X55.2625 Y111.3816
G1 F300.0 X55.2718 Y111.358
G1 F800.0 X59.7503 Y106.5113
G1 X64.2287 Y101.6646
G1 F300.0 X64.2195 Y101.6863
G1 F800.0 X64.2883 Y100.5242
G1 F300.0 Y100.5244
G1 F800.0 X64.2911 Y100.4742
G2 X64.3367 Y98.8658 I-85.4036 J-3.2285
G1 X64.3653 Y97.4574
G1 X64.3876 Y96.225
G1 X64.4056 Y95.1466
G1 X64.4132 Y94.6748
G1 X64.4268 Y93.7902
G1 X64.4381 Y93.0161
G1 X64.4476 Y92.3388
G1 X64.4554 Y91.7462
G1 X64.4794 Y89.6719
G1 X64.4818 Y89.4126
G1 X64.4855 Y88.9589
G1 X64.4877 Y88.6187
G1 X64.4893 Y88.1083
G1 X64.4891 Y87.9808
G1 X64.4886 Y87.8852
G1 X64.4871 Y87.7417
G3 Y87.7407 I0.035 J-0.0004
G2 X64.4808 Y87.6017 I-1.0864 J-0.0198
G1 F300.0 X64.4973 Y87.6278
G2 F800.0 X64.4305 Y87.5961 I-0.1826 J0.2987
G3 X64.4288 Y87.5954 I0.0116 J-0.033
G1 X64.392 Y87.5804
G2 X63.203 Y87.1365 I-16.9854 J43.676
G3 X63.2029 Y87.1364 I0.0118 J-0.033
G1 X62.3071 Y86.8123
G1 X61.6345 Y86.5712
G1 X60.6248 Y86.2117
G1 X60.1197 Y86.0328
G1 X60.0565 Y86.0104
G1 X59.6144 Y85.8544
G1 X54.7505 Y84.1402
G1 F300.0 X54.7272 Y84.107
G1 F800.0 X54.7541 Y80.2544
G1 X54.7811 Y76.4018
G1 F300.0 X54.8045 Y76.3691
G1 F800.0 X59.6115 Y74.6721
G1 X64.4185 Y72.975
G1 F300.0 X64.3951 Y73.0077
G1 F800.0 X64.4228 Y69.9336
G1 X64.4504 Y66.8594
G1 F300.0 X64.4738 Y66.8928
G1 F800.0 X59.6117 Y65.1825
G1 X54.7496 Y63.4723
G1 F300.0 X54.7262 Y63.439
G1 F800.0 X54.7537 Y59.8342
G1 X54.7811 Y56.2294
G1 F300.0 X54.8039 Y56.1968
G1 F800.0 X59.6109 Y54.4072
G1 X64.4179 Y52.6175
G1 F300.0 X64.3951 Y52.65
G1 F800.0 X64.4224 Y48.5213
G1 X64.4497 Y44.3926
G1 F300.0 X64.4731 Y44.4259
G1 F800.0 X59.6127 Y42.7131
G1 X54.7522 Y41.0004
G1 F300.0 X54.7289 Y40.9673
G1 F800.0 X54.7398 Y37.3527
G1 X54.7506 Y33.7381
G1 F300.0 X54.7611 Y33.7133
G1 F800.0 X59.5973 Y28.9585
G1 X64.4334 Y24.2038
G1 F300.0 X64.4231 Y24.2251
G1 F800.0 X64.4876 Y23.6089
G1 F300.0 X64.4875 Y23.6098
G1 F800.0 X64.4937 Y23.5293
G1 X64.4979 Y23.45
G1 X64.4997 Y23.4108
G2 X64.5101 Y23.0995 I-18.0791 J-0.7631
G1 X64.5172 Y22.807
G1 X64.5225 Y22.5328
G2 X64.5519 Y18.4181 I-243.3227 J-3.7931
G1 F300.0 Y18.418
G1 F800.0 Y13.8397
G1 F300.0 X64.567 Y13.8685
G1 F800.0 X62.4508 Y12.4045
G1 X60.3347 Y10.9405
G1 F300.0 X60.3546 Y10.9467
G1 F800.0 X57.5592 Y10.9433
G1 X54.7638 Y10.94
M5
G0 Z1.1
G0 X54.7289 Y10.905
G1 F300.0 Z0.9
M3
G1 F800.0 X54.7281 Y7.5349
G1 X54.7274 Y4.1648
G1 F300.0 X54.7329 Y4.1836
G1 F800.0 X53.8834 Y2.8512
G1 X53.034 Y1.5188
G1 F300.0 X53.0635 Y1.535
G1 F800.0 X44.7818
G1 X36.5
G1 F300.0 X36.5295 Y1.5189
G1 F800.0 X35.6817 Y2.8449
M5
G0 Z1.1
M5
M9
M30
