; generated by Slic3r 1.2.9 on 2018-01-17 at 08:18:08

; external perimeters extrusion width = 0.35mm
; perimeters extrusion width = 0.52mm
; infill extrusion width = 0.52mm
; solid infill extrusion width = 0.52mm
; top infill extrusion width = 0.52mm

M107
M190 S116 ; set bed temperature
M104 S238 ; set temperature
G28 ; home all axes
G1 Z5 F5000 ; lift nozzle

M109 S238 ; wait for temperature to be reached
G21 ; set units to millimeters
G90 ; use absolute coordinates
M82 ; use absolute distances for extrusion
G92 E0
G1 E-2.00000 F2400.00000
G92 E0
G1 Z0.250 F9000.000
G1 X28.555 Y26.393 F9000.000
G1 E2.00000 F2400.00000
M204 S700
G1 X30.457 Y25.106 E2.03181 F1800.000
G1 X32.764 Y24.538 E2.06473
G1 X59.722 Y22.879 E2.43887
G1 X61.937 Y22.825 E2.46956
G1 X63.779 Y22.879 E2.49509 F1800.000
G1 X90.820 Y24.538 E2.87039
G1 X93.054 Y25.073 E2.90220
G1 X94.972 Y26.336 E2.93401
G1 X96.391 Y28.271 E2.96727
G1 X99.525 Y34.784 E3.06738
G1 X100.181 Y37.535 E3.10655
G1 X100.182 Y42.569 E3.17629
G1 X99.785 Y44.831 E3.20811
G1 X98.641 Y46.823 E3.23992
G1 X96.888 Y48.306 E3.27173
G1 X94.734 Y49.103 E3.30355
G1 X93.540 Y49.212 E3.32017
G1 X30.047 Y49.212 E4.19971
G1 X27.785 Y48.815 E4.23152
G1 X25.793 Y47.671 E4.26334
G1 X24.310 Y45.918 E4.29515
G1 X23.512 Y43.764 E4.32696
G1 X23.404 Y42.569 E4.34359
G1 X23.405 Y37.537 E4.41329
G1 X24.061 Y34.784 E4.45250
G1 X27.205 Y28.250 E4.55294
G1 X28.524 Y26.435 E4.58402
G1 X28.818 Y26.586 F9000.000
G1 X30.689 Y25.355 E4.61505 F1800.000
G1 X32.784 Y24.859 E4.64487
G1 X59.741 Y23.200 E5.01901
G1 X61.928 Y23.146 E5.04931
G1 X63.759 Y23.200 E5.07468 F1800.000
G1 X90.801 Y24.859 E5.44998
G1 X92.977 Y25.390 E5.48101
G1 X94.831 Y26.646 E5.51204
G1 X96.102 Y28.412 E5.54217
G1 X99.235 Y34.923 E5.64227
G1 X99.859 Y37.541 E5.67955
G1 X99.861 Y42.569 E5.74921
G1 X99.464 Y44.774 E5.78024
G1 X98.323 Y46.701 E5.81126
G1 X96.582 Y48.110 E5.84229
G1 X93.540 Y48.891 E5.88580
G1 X30.047 Y48.891 E6.76534
G1 X27.842 Y48.494 E6.79637
G1 X25.914 Y47.353 E6.82740
G1 X24.506 Y45.612 E6.85843
G1 X23.725 Y42.569 E6.90194
G1 X23.726 Y37.543 E6.97156
G1 X24.350 Y34.923 E7.00886
G1 X27.493 Y28.392 E7.10928
G1 X28.787 Y26.628 E7.13957
G1 E5.13957 F2400.00000
G92 E0
G1 X33.694 Y31.998 F9000.000
G1 E2.00000 F2400.00000
M204 S1400
G1 X52.500 Y31.996 E2.26051 F1500.000
G1 X53.626 Y31.662 E2.27678
G1 X55.270 Y31.257 E2.30024
G1 X56.952 Y30.933 E2.32397
G1 X58.544 Y30.714 E2.34622
G1 X60.164 Y30.580 E2.36874
G1 X61.754 Y30.536 E2.39078
G1 X63.329 Y30.580 E2.41260
G1 X64.955 Y30.714 E2.43521
G1 X66.549 Y30.933 E2.45749
G1 X68.225 Y31.256 E2.48114
G1 X69.876 Y31.662 E2.50468
G1 X71.007 Y31.997 E2.52102
G1 X89.892 Y31.998 E2.78263
G1 X92.709 Y37.853 E2.87263
G1 X92.709 Y41.739 E2.92647
G1 X87.481 Y41.739 E2.99888
G1 X86.080 Y40.048 E3.02931
G1 X85.741 Y39.867 E3.03463
G1 X80.557 Y36.342 E3.12147
G1 X73.836 Y34.010 E3.22002
G1 X68.495 Y33.495 E3.29435
G1 X62.979 Y33.735 E3.37083
G1 X57.342 Y34.728 E3.45012
G1 X51.694 Y36.463 E3.53198
G1 X46.991 Y38.296 E3.60189
G1 X42.552 Y40.471 E3.67037
G1 X40.503 Y41.738 E3.70374
G1 X30.877 Y41.739 E3.83709
G1 X30.877 Y37.853 E3.89092
G1 X33.671 Y32.046 E3.98019
M204 S700
G1 X33.492 Y31.677 F9000.000
M204 S1400
G1 X52.453 Y31.675 E4.24285 F1500.000
G1 X53.542 Y31.352 E4.25859
G1 X55.201 Y30.943 E4.28226
G1 X56.900 Y30.616 E4.30622
G1 X58.509 Y30.395 E4.32872
G1 X60.146 Y30.259 E4.35148
G1 X61.754 Y30.215 E4.37376
G1 X63.346 Y30.259 E4.39583
G1 X64.990 Y30.395 E4.41868
G1 X66.601 Y30.616 E4.44121
G1 X68.294 Y30.942 E4.46508
G1 X69.960 Y31.352 E4.48885
G1 X71.053 Y31.676 E4.50465
G1 X90.094 Y31.677 E4.76841
G1 X93.030 Y37.780 E4.86222
G1 X93.030 Y42.060 E4.92152
G1 X87.330 Y42.061 E5.00048
G1 X85.873 Y40.302 E5.03213
G1 X85.575 Y40.143 E5.03681
G1 X80.412 Y36.631 E5.12330
G1 X73.767 Y34.326 E5.22072
G1 X68.487 Y33.817 E5.29421
G1 X63.014 Y34.055 E5.37009
G1 X57.417 Y35.041 E5.44881
G1 X51.799 Y36.767 E5.53023
G1 X47.121 Y38.591 E5.59979
G1 X42.708 Y40.753 E5.66787
G1 X40.595 Y42.059 E5.70228
G1 X30.555 Y42.060 E5.84135
G1 X30.556 Y37.780 E5.90064
G1 X33.469 Y31.724 E5.99373
M204 S700
G1 X33.290 Y31.356 F9000.000
M204 S1400
G1 X52.406 Y31.353 E6.25854 F900.000
G1 X53.458 Y31.041 E6.27373
G1 X55.133 Y30.629 E6.29763
G1 X56.848 Y30.299 E6.32182
G1 X58.473 Y30.075 E6.34456
G1 X60.128 Y29.938 E6.36756
G1 X61.754 Y29.893 E6.39009
G1 X63.364 Y29.938 E6.41240
G1 X65.026 Y30.075 E6.43549
G1 X66.654 Y30.299 E6.45826
G1 X68.363 Y30.628 E6.48237
G1 X70.044 Y31.041 E6.50635
G1 X71.100 Y31.354 E6.52161
G1 X90.296 Y31.356 E6.78752
G1 X93.352 Y37.706 E6.88515
G1 X93.352 Y42.382 E6.94992
G1 X87.207 Y42.382 E7.03503
G1 X87.106 Y42.293 E7.03690
G1 X85.666 Y40.555 E7.06816
G1 X85.408 Y40.418 E7.07221
G1 X80.266 Y36.921 E7.15835
G1 X73.698 Y34.642 E7.25465
G1 X68.478 Y34.140 E7.32730
G1 X63.049 Y34.375 E7.40257
G1 X57.493 Y35.354 E7.48073
G1 X51.905 Y37.070 E7.56170
G1 X47.250 Y38.885 E7.63092
G1 X42.863 Y41.035 E7.69859
G1 X40.686 Y42.380 E7.73404
G1 X30.234 Y42.382 E7.87883
G1 X30.234 Y37.706 E7.94360
G1 X33.267 Y31.403 E8.04049
M204 S700
G1 X33.564 Y31.574 F9000.000
G1 X31.206 Y41.586 F9000.000
M204 S1000
G1 X31.030 Y41.410 E8.04396 F2550.000
G1 X31.030 Y40.954 E8.05028
G1 X31.661 Y41.586 E8.06269
G1 X32.117 Y41.586 E8.06901
G1 X31.030 Y40.499 E8.09037
G1 X31.030 Y40.043 E8.09669
G1 X32.572 Y41.586 E8.12699
G1 X33.028 Y41.586 E8.13332
G1 X31.030 Y39.588 E8.17256
G1 X31.030 Y39.132 E8.17889
G1 X33.483 Y41.586 E8.22708
G1 X33.939 Y41.586 E8.23340
G1 X31.030 Y38.676 E8.29054
G1 X31.030 Y38.221 E8.29686
G1 X34.395 Y41.586 E8.36294
G1 X34.850 Y41.586 E8.36927
G1 X31.052 Y37.788 E8.44385
G1 X31.200 Y37.480 E8.44859
G1 X35.306 Y41.586 E8.52921
G1 X35.761 Y41.585 E8.53554
G1 X31.348 Y37.173 E8.62220
G1 X31.496 Y36.865 E8.62694
G1 X36.217 Y41.585 E8.71963
G1 X36.672 Y41.585 E8.72596
G1 X31.644 Y36.558 E8.82470
G1 X31.792 Y36.250 E8.82944
G1 X37.128 Y41.585 E8.93422
G1 X37.583 Y41.585 E8.94054
G1 X31.940 Y35.942 E9.05136
G1 X32.088 Y35.635 E9.05610
G1 X38.039 Y41.585 E9.17296
G1 X38.494 Y41.585 E9.17928
G1 X32.236 Y35.327 E9.30218
G1 X32.384 Y35.020 E9.30692
G1 X38.950 Y41.585 E9.43585
G1 X39.405 Y41.585 E9.44218
G1 X32.532 Y34.712 E9.57715
G1 X32.680 Y34.405 E9.58189
G1 X39.861 Y41.585 E9.72290
G1 X40.316 Y41.585 E9.72923
G1 X32.828 Y34.097 E9.87628
G1 X32.976 Y33.789 E9.88102
G1 X40.671 Y41.484 E10.03214
G1 X40.953 Y41.310 E10.03674
G1 X33.124 Y33.482 E10.19048
G1 X33.272 Y33.174 E10.19522
G1 X41.234 Y41.136 E10.35159
G1 X41.516 Y40.962 E10.35618
G1 X33.420 Y32.867 E10.51517
G1 X33.568 Y32.559 E10.51991
G1 X41.797 Y40.788 E10.68152
G1 X42.079 Y40.614 E10.68612
G1 X33.716 Y32.252 E10.85035
G1 X34.072 Y32.151 E10.85547
G1 X42.361 Y40.440 E11.01826
G1 X42.653 Y40.277 E11.02291
G1 X34.527 Y32.151 E11.18250
G1 X34.983 Y32.151 E11.18882
G1 X42.959 Y40.127 E11.34547
G1 X43.265 Y39.978 E11.35020
G1 X35.438 Y32.151 E11.50391
G1 X35.894 Y32.151 E11.51023
G1 X43.571 Y39.828 E11.66100
G1 X43.876 Y39.678 E11.66573
G1 X36.349 Y32.151 E11.81355
G1 X36.805 Y32.151 E11.81988
G1 X44.182 Y39.528 E11.96476
G1 X44.488 Y39.378 E11.96949
G1 X37.260 Y32.151 E12.11143
G1 X37.716 Y32.151 E12.11776
G1 X44.794 Y39.229 E12.25676
G1 X45.099 Y39.079 E12.26149
G1 X38.171 Y32.151 E12.39755
G1 X38.627 Y32.151 E12.40387
G1 X45.405 Y38.929 E12.53699
G1 X45.711 Y38.779 E12.54172
G1 X39.082 Y32.150 E12.67190
G1 X39.538 Y32.150 E12.67823
G1 X46.017 Y38.629 E12.80546
G1 X46.322 Y38.480 E12.81019
G1 X39.993 Y32.150 E12.93449
G1 X40.449 Y32.150 E12.94081
G1 X46.628 Y38.330 E13.06217
G1 X46.934 Y38.180 E13.06690
G1 X40.904 Y32.150 E13.18531
G1 X41.360 Y32.150 E13.19164
G1 X47.259 Y38.049 E13.30749
G1 X47.587 Y37.922 E13.31238
G1 X41.815 Y32.150 E13.42573
G1 X42.271 Y32.150 E13.43205
G1 X47.915 Y37.794 E13.54289
G1 X48.243 Y37.666 E13.54777
G1 X42.727 Y32.150 E13.65610
G1 X43.182 Y32.150 E13.66243
G1 X48.570 Y37.538 E13.76825
G1 X48.898 Y37.410 E13.77313
G1 X43.638 Y32.150 E13.87644
G1 X44.093 Y32.150 E13.88277
G1 X49.226 Y37.283 E13.98357
G1 X49.554 Y37.155 E13.98845
G1 X44.549 Y32.150 E14.08675
G1 X45.004 Y32.150 E14.09307
G1 X49.881 Y37.027 E14.18886
G1 X50.209 Y36.899 E14.19374
G1 X45.460 Y32.150 E14.28701
G1 X45.915 Y32.150 E14.29334
G1 X50.537 Y36.771 E14.38411
G1 X50.865 Y36.644 E14.38899
G1 X46.371 Y32.150 E14.47725
G1 X46.826 Y32.150 E14.48357
G1 X51.192 Y36.516 E14.56932
G1 X51.520 Y36.388 E14.57421
G1 X47.282 Y32.150 E14.65745
G1 X47.737 Y32.149 E14.66377
G1 X51.858 Y36.270 E14.74470
G1 X52.207 Y36.163 E14.74976
G1 X48.193 Y32.149 E14.82859
G1 X48.648 Y32.149 E14.83491
G1 X52.555 Y36.056 E14.91164
G1 X52.904 Y35.949 E14.91670
G1 X49.104 Y32.149 E14.99133
G1 X49.559 Y32.149 E14.99765
G1 X53.252 Y35.842 E15.07018
G1 X53.601 Y35.735 E15.07524
G1 X50.015 Y32.149 E15.14566
G1 X50.470 Y32.149 E15.15199
G1 X53.949 Y35.628 E15.22031
G1 X54.298 Y35.521 E15.22537
G1 X50.926 Y32.149 E15.29159
G1 X51.381 Y32.149 E15.29792
G1 X54.646 Y35.414 E15.36204
G1 X54.995 Y35.307 E15.36710
G1 X51.837 Y32.149 E15.42912
G1 X52.293 Y32.149 E15.43544
G1 X55.344 Y35.200 E15.49536
G1 X55.692 Y35.093 E15.50043
G1 X52.683 Y32.084 E15.55952
G1 X53.034 Y31.980 E15.56461
G1 X56.041 Y34.986 E15.62365
G1 X56.389 Y34.879 E15.62871
G1 X53.386 Y31.875 E15.68770
G1 X53.742 Y31.776 E15.69283
G1 X56.738 Y34.772 E15.75167
G1 X57.086 Y34.665 E15.75673
G1 X54.107 Y31.686 E15.81523
G1 X54.473 Y31.596 E15.82046
G1 X57.443 Y34.566 E15.87879
G1 X57.831 Y34.498 E15.88426
G1 X54.839 Y31.506 E15.94302
G1 X55.204 Y31.416 E15.94824
G1 X58.218 Y34.430 E16.00743
G1 X58.605 Y34.362 E16.01289
G1 X55.584 Y31.340 E16.07222
G1 X55.966 Y31.267 E16.07763
G1 X58.993 Y34.293 E16.13706
G1 X59.380 Y34.225 E16.14252
G1 X56.348 Y31.193 E16.20206
G1 X56.730 Y31.120 E16.20746
G1 X59.767 Y34.157 E16.26711
G1 X60.155 Y34.089 E16.27257
G1 X57.122 Y31.056 E16.33213
G1 X57.522 Y31.000 E16.33775
G1 X60.542 Y34.020 E16.39705
G1 X60.929 Y33.952 E16.40252
G1 X57.923 Y30.945 E16.46156
G1 X58.323 Y30.890 E16.46718
G1 X61.317 Y33.884 E16.52597
G1 X61.704 Y33.816 E16.53143
G1 X58.735 Y30.846 E16.58974
G1 X59.156 Y30.812 E16.59560
G1 X62.091 Y33.747 E16.65326
G1 X62.479 Y33.679 E16.65872
G1 X59.576 Y30.777 E16.71573
G1 X59.997 Y30.742 E16.72159
G1 X62.866 Y33.611 E16.77794
G1 X63.283 Y33.572 E16.78375
G1 X60.434 Y30.723 E16.83969
G1 X60.878 Y30.711 E16.84585
G1 X63.719 Y33.553 E16.90166
G1 X64.156 Y33.534 E16.90773
G1 X61.321 Y30.699 E16.96341
G1 X61.769 Y30.691 E16.96963
G1 X64.593 Y33.515 E17.02508
G1 X65.029 Y33.496 E17.03115
G1 X62.237 Y30.704 E17.08598
G1 X62.706 Y30.717 E17.09249
G1 X65.466 Y33.477 E17.14669
G1 X65.902 Y33.458 E17.15276
G1 X63.174 Y30.730 E17.20633
G1 X63.666 Y30.767 E17.21319
G1 X66.339 Y33.439 E17.26567
G1 X66.776 Y33.420 E17.27174
G1 X64.163 Y30.808 E17.32304
G1 X64.660 Y30.849 E17.32996
G1 X67.212 Y33.401 E17.38009
G1 X67.649 Y33.382 E17.38615
G1 X65.175 Y30.909 E17.43473
G1 X65.703 Y30.981 E17.44214
G1 X68.085 Y33.363 E17.48891
G1 X68.522 Y33.344 E17.49498
G1 X66.232 Y31.054 E17.53996
G1 X66.781 Y31.148 E17.54770
G1 X69.019 Y33.385 E17.59165
G1 X69.523 Y33.434 E17.59868
G1 X67.345 Y31.257 E17.64144
G1 X67.909 Y31.365 E17.64942
G1 X70.027 Y33.483 E17.69101
G1 X70.531 Y33.531 E17.69804
G1 X68.499 Y31.500 E17.73794
G1 X69.104 Y31.648 E17.74658
G1 X71.035 Y33.580 E17.78452
G1 X71.539 Y33.628 E17.79155
G1 X69.708 Y31.797 E17.82752
G1 X70.352 Y31.986 E17.83685
G1 X72.044 Y33.677 E17.87006
G1 X72.548 Y33.726 E17.87709
G1 X70.972 Y32.150 E17.90804
G1 X71.428 Y32.150 E17.91436
G1 X73.052 Y33.774 E17.94626
G1 X73.556 Y33.823 E17.95329
G1 X71.883 Y32.150 E17.98614
G1 X72.339 Y32.150 E17.99247
G1 X74.102 Y33.913 E18.02709
M204 S700
G1 X74.799 Y34.155 F9000.000
M204 S1000
G1 X72.795 Y32.150 E18.06646 F2550.000
G1 X73.250 Y32.150 E18.07279
G1 X75.497 Y34.397 E18.11691
M204 S700
G1 X76.194 Y34.639 F9000.000
M204 S1000
G1 X73.706 Y32.150 E18.16578 F2550.000
G1 X74.161 Y32.150 E18.17211
G1 X76.892 Y34.881 E18.22573
M204 S700
G1 X77.590 Y35.123 F9000.000
M204 S1000
G1 X74.617 Y32.150 E18.28411 F2550.000
G1 X75.073 Y32.150 E18.29043
G1 X78.287 Y35.365 E18.35356
M204 S700
G1 X78.985 Y35.607 F9000.000
M204 S1000
G1 X75.528 Y32.150 E18.42144 F2550.000
G1 X75.984 Y32.150 E18.42777
G1 X79.682 Y35.849 E18.50040
M204 S700
G1 X80.380 Y36.091 F9000.000
M204 S1000
G1 X76.439 Y32.150 E18.57778 F2550.000
G1 X76.895 Y32.150 E18.58411
G1 X81.444 Y36.699 E18.67344
M204 S700
G1 X82.868 Y37.668 F9000.000
M204 S1000
G1 X77.351 Y32.150 E18.78180 F2550.000
G1 X77.806 Y32.150 E18.78813
G1 X84.293 Y38.637 E18.91552
M204 S700
G1 X85.717 Y39.606 F9000.000
M204 S1000
G1 X78.262 Y32.150 E19.06193 F2550.000
G1 X78.718 Y32.150 E19.06826
G1 X88.154 Y41.586 E19.25357
G1 X88.609 Y41.586 E19.25990
G1 X79.173 Y32.150 E19.44521
G1 X79.629 Y32.150 E19.45154
G1 X89.065 Y41.586 E19.63685
G1 X89.520 Y41.586 E19.64317
G1 X80.084 Y32.151 E19.82848
G1 X80.540 Y32.151 E19.83481
G1 X89.976 Y41.586 E20.02012
G1 X90.431 Y41.586 E20.02645
G1 X80.996 Y32.151 E20.21175
G1 X81.451 Y32.151 E20.21808
G1 X90.887 Y41.586 E20.40339
G1 X91.342 Y41.586 E20.40971
G1 X81.907 Y32.151 E20.59502
G1 X82.362 Y32.151 E20.60135
G1 X91.798 Y41.586 E20.78665
G1 X92.254 Y41.586 E20.79298
G1 X82.818 Y32.151 E20.97828
G1 X83.274 Y32.151 E20.98461
G1 X92.556 Y41.433 E21.16691
G1 X92.556 Y40.978 E21.17323
G1 X83.729 Y32.151 E21.34658
G1 X84.185 Y32.151 E21.35291
G1 X92.556 Y40.522 E21.51731
G1 X92.556 Y40.066 E21.52364
G1 X84.640 Y32.151 E21.67909
G1 X85.096 Y32.151 E21.68542
G1 X92.556 Y39.611 E21.83193
G1 X92.556 Y39.155 E21.83825
G1 X85.552 Y32.151 E21.97581
G1 X86.007 Y32.151 E21.98214
G1 X92.556 Y38.700 E22.11075
G1 X92.556 Y38.244 E22.11708
G1 X86.463 Y32.151 E22.23674
G1 X86.918 Y32.151 E22.24307
G1 X92.386 Y37.619 E22.35045
M204 S700
G1 X91.964 Y36.741 F9000.000
M204 S1000
G1 X87.374 Y32.151 E22.44059 F2550.000
G1 X87.830 Y32.151 E22.44692
G1 X91.541 Y35.863 E22.51981
M204 S700
G1 X91.119 Y34.985 F9000.000
M204 S1000
G1 X88.285 Y32.151 E22.57546 F2550.000
G1 X88.741 Y32.151 E22.58178
G1 X90.696 Y34.106 E22.62018
M204 S700
G1 X90.274 Y33.228 F9000.000
M204 S1000
G1 X89.197 Y32.151 E22.64134 F2550.000
G1 X89.652 Y32.151 E22.64767
G1 X89.851 Y32.350 E22.65158
M204 S700
G1 X87.301 Y41.189 F9000.000
M204 S1000
G1 X87.698 Y41.586 E22.65938 F2550.000
M204 S700
M104 S235 ; set temperature
M140 S114 ; wait for bed temperature to be reached
G1 E20.65938 F2400.00000
G92 E0
G1 Z0.450 F9000.000
G1 X27.205 Y28.250 F9000.000
G1 E2.00000 F2400.00000
G1 X28.555 Y26.393 E2.02630 F3600.000
G1 X30.457 Y25.106 E2.05260
G1 X32.764 Y24.538 E2.07981
G1 X59.722 Y22.879 E2.38912
G1 X61.937 Y22.825 E2.41449
G1 X63.779 Y22.879 E2.43559 F3600.000
G1 X90.820 Y24.538 E2.74586
G1 X93.054 Y25.073 E2.77216
G1 X94.972 Y26.336 E2.79846
G1 X96.391 Y28.271 E2.82595
G1 X99.525 Y34.784 E2.90871
G1 X100.181 Y37.535 E2.94110
G1 X100.182 Y42.569 E2.99876
G1 X99.785 Y44.831 E3.02506
G1 X98.641 Y46.823 E3.05136
G1 X96.888 Y48.306 E3.07766
G1 X94.734 Y49.103 E3.10396
G1 X93.540 Y49.212 E3.11770
G1 X30.047 Y49.212 E3.84483
G1 X27.785 Y48.815 E3.87113
G1 X25.793 Y47.671 E3.89743
G1 X24.310 Y45.918 E3.92373
G1 X23.512 Y43.764 E3.95003
G1 X23.404 Y42.569 E3.96377
G1 X23.405 Y37.537 E4.02140
G1 X24.061 Y34.784 E4.05381
G1 X27.181 Y28.298 E4.13624
G1 X27.493 Y28.392 F9000.000
G1 X28.818 Y26.586 E4.16189 F3600.000
G1 X30.689 Y25.355 E4.18755
G1 X32.784 Y24.859 E4.21220
G1 X59.741 Y23.200 E4.52150
G1 X61.928 Y23.146 E4.54655
G1 X63.759 Y23.200 E4.56753 F3600.000
G1 X90.801 Y24.859 E4.87779
G1 X92.977 Y25.390 E4.90344
G1 X94.831 Y26.646 E4.92909
G1 X96.102 Y28.412 E4.95401
G1 X99.235 Y34.923 E5.03676
G1 X99.859 Y37.541 E5.06758
G1 X99.861 Y42.569 E5.12517
G1 X99.464 Y44.774 E5.15082
G1 X98.323 Y46.701 E5.17647
G1 X96.582 Y48.110 E5.20212
G1 X93.540 Y48.891 E5.23809
G1 X30.047 Y48.891 E5.96522
G1 X27.842 Y48.494 E5.99087
G1 X25.914 Y47.353 E6.01652
G1 X24.506 Y45.612 E6.04217
G1 X23.725 Y42.569 E6.07814
G1 X23.726 Y37.543 E6.13570
G1 X24.350 Y34.923 E6.16654
G1 X27.470 Y28.439 E6.24895
G1 E4.24895 F2400.00000
G92 E0
G1 X33.838 Y32.241 F9000.000
G1 E2.00000 F2400.00000
M204 S1400
G1 X51.744 Y32.235 E2.29706 F3000.000
