; generated by Slic3r 1.2.9 on 2017-12-24 at 20:03:06

; external perimeters extrusion width = 0.35mm
; perimeters extrusion width = 0.52mm
; infill extrusion width = 0.52mm
; solid infill extrusion width = 0.52mm
; top infill extrusion width = 0.52mm

M107
M190 S116 ; set bed temperature
M104 S238 ; set temperature
G28 ; home all axes
G1 Z5 F5000 ; lift nozzle

M109 S238 ; wait for temperature to be reached
G21 ; set units to millimeters
G90 ; use absolute coordinates
M82 ; use absolute distances for extrusion
G92 E0
G1 E-2.00000 F2400.00000
G92 E0
G1 Z0.250 F9000.000
G1 X30.482 Y15.108 F9000.000
G1 E2.00000 F2400.00000
M204 S700
G1 X31.826 Y13.245 E2.03181 F1800.000
G1 X33.723 Y11.952 E2.06363
G1 X36.053 Y11.374 E2.09688
G1 X63.095 Y9.716 E2.47218
G1 X64.937 Y9.661 E2.49770
G1 X66.926 Y9.706 E2.52527
G1 X94.109 Y11.374 E2.90253 F1800.000
G1 X96.343 Y11.910 E2.93435
G1 X98.260 Y13.173 E2.96616
G1 X99.669 Y15.087 E2.99908
G1 X102.813 Y21.620 E3.09952
G1 X103.468 Y24.370 E3.13867
G1 X103.470 Y29.406 E3.20843
G1 X103.073 Y31.668 E3.24024
G1 X101.929 Y33.659 E3.27206
G1 X100.176 Y35.142 E3.30387
G1 X98.022 Y35.940 E3.33568
G1 X96.827 Y36.048 E3.35231
G1 X33.334 Y36.048 E4.23185
G1 X31.072 Y35.651 E4.26366
G1 X29.080 Y34.508 E4.29548
G1 X27.597 Y32.754 E4.32729
G1 X26.800 Y30.600 E4.35910
G1 X26.692 Y29.406 E4.37572
G1 X26.693 Y24.370 E4.44548
G1 X27.348 Y21.620 E4.48464
G1 X30.459 Y15.155 E4.58402
G1 X30.771 Y15.248 F9000.000
G1 X32.090 Y13.437 E4.61505 F1800.000
G1 X33.957 Y12.200 E4.64608
G1 X36.073 Y11.695 E4.67622
G1 X63.115 Y10.037 E5.05152
G1 X64.945 Y9.983 E5.07689
G1 X66.917 Y10.027 E5.10422
G1 X94.090 Y11.695 E5.48133 F1800.000
G1 X96.265 Y12.227 E5.51235
G1 X98.119 Y13.484 E5.54338
G1 X99.380 Y15.228 E5.57320
G1 X102.523 Y21.760 E5.67361
G1 X103.147 Y24.376 E5.71087
G1 X103.148 Y29.406 E5.78054
G1 X102.751 Y31.610 E5.81157
G1 X101.611 Y33.538 E5.84260
G1 X99.869 Y34.947 E5.87363
G1 X96.827 Y35.727 E5.91714
G1 X33.334 Y35.727 E6.79668
G1 X31.130 Y35.330 E6.82771
G1 X29.202 Y34.189 E6.85873
G1 X27.793 Y32.448 E6.88976
G1 X27.013 Y29.406 E6.93327
G1 X27.014 Y24.376 E7.00294
G1 X27.638 Y21.759 E7.04021
G1 X30.748 Y15.295 E7.13958
G1 X34.291 Y16.954 F9000.000
G1 X34.581 Y16.355 E7.14879 F1800.000
G1 X35.692 Y15.625 E7.16720
G1 X36.464 Y15.593 E7.17790
G1 X55.373 Y15.593 E7.43985
G1 X56.177 Y15.363 E7.45143
G1 X57.941 Y14.930 E7.47660
G1 X59.829 Y14.567 E7.50323
G1 X61.548 Y14.331 E7.52726
G1 X63.324 Y14.182 E7.55195
G1 X65.195 Y14.133 E7.57787
G1 X66.970 Y14.186 E7.60247 F1800.000
G1 X68.717 Y14.333 E7.62676
G1 X70.432 Y14.569 E7.65074
G1 X72.327 Y14.935 E7.67747
G1 X74.084 Y15.367 E7.70254
G1 X74.867 Y15.592 E7.71383
G1 X94.392 Y15.595 E7.98430
G1 X95.563 Y16.326 E8.00343
G1 X98.906 Y23.267 E8.11015
G1 X99.017 Y23.432 E8.11291
G1 X99.235 Y24.124 E8.12295
G1 X99.237 Y30.404 E8.20995
G1 X97.825 Y31.816 E8.23761
G1 X85.795 Y31.814 E8.40426
G1 X85.143 Y31.627 E8.41366
G1 X82.740 Y30.140 E8.45280
G1 X78.573 Y28.100 E8.51707
G1 X74.075 Y26.347 E8.58394
G1 X68.763 Y24.718 E8.66091
G1 X63.553 Y23.802 E8.73420
G1 X58.461 Y23.581 E8.80480
G1 X53.685 Y24.047 E8.87127
G1 X47.808 Y26.090 E8.95745
G1 X42.920 Y29.407 E9.03929
G1 X41.696 Y30.874 E9.06575
G1 X41.560 Y31.013 E9.06845
G1 X40.991 Y31.509 E9.07890
G1 X40.173 Y31.816 E9.09101
G1 X32.336 Y31.816 E9.19957
G1 X30.924 Y30.404 E9.22723
G1 X30.932 Y24.098 E9.31459
G1 X31.150 Y23.422 E9.32442
G1 X31.258 Y23.262 E9.32710
G1 X34.268 Y17.001 E9.42334
G1 X34.580 Y17.094 F9000.000
G1 X34.831 Y16.575 E9.43132 F1800.000
G1 X35.794 Y15.943 E9.44728
G1 X36.467 Y15.915 E9.45661
G1 X55.420 Y15.915 E9.71915
G1 X56.258 Y15.674 E9.73123
G1 X58.012 Y15.243 E9.75625
G1 X59.877 Y14.885 E9.78256
G1 X61.585 Y14.650 E9.80644
G1 X63.346 Y14.503 E9.83092
G1 X65.148 Y14.453 E9.85589
G1 X66.941 Y14.506 E9.88074 F1800.000
G1 X68.677 Y14.652 E9.90488
G1 X70.382 Y14.887 E9.92871
G1 X72.254 Y15.248 E9.95513
G1 X74.001 Y15.678 E9.98005
G1 X74.821 Y15.914 E9.99186
G1 X94.300 Y15.916 E10.26170
G1 X95.315 Y16.550 E10.27828
G1 X98.627 Y23.428 E10.38404
G1 X98.725 Y23.574 E10.38647
G1 X98.914 Y24.174 E10.39518
G1 X98.916 Y30.271 E10.47964
G1 X97.692 Y31.494 E10.50361
G1 X85.840 Y31.493 E10.66779
G1 X85.275 Y31.331 E10.67593
G1 X82.896 Y29.859 E10.71468
G1 X78.702 Y27.806 E10.77937
G1 X74.186 Y26.045 E10.84652
G1 X68.838 Y24.405 E10.92400
G1 X63.587 Y23.482 E10.99785
G1 X58.452 Y23.259 E11.06906
G1 X53.615 Y23.731 E11.13638
G1 X47.662 Y25.800 E11.22368
G1 X42.702 Y29.167 E11.30673
G1 X41.339 Y30.780 E11.33598
G1 X40.824 Y31.229 E11.34545
G1 X40.115 Y31.495 E11.35594
G1 X32.469 Y31.494 E11.46185
G1 X31.246 Y30.271 E11.48582
G1 X31.252 Y24.152 E11.57059
G1 X31.441 Y23.566 E11.57911
G1 X31.536 Y23.424 E11.58148
G1 X34.557 Y17.141 E11.67806
G1 X34.869 Y17.234 F9000.000
G1 X35.082 Y16.795 E11.68481 F1800.000
G1 X35.897 Y16.260 E11.69832
G1 X36.471 Y16.236 E11.70628
G1 X55.466 Y16.236 E11.96942
G1 X56.338 Y15.986 E11.98198
G1 X58.082 Y15.557 E12.00686
G1 X59.925 Y15.203 E12.03286
G1 X61.623 Y14.970 E12.05659
G1 X63.368 Y14.824 E12.08086
G1 X65.177 Y14.776 E12.10592
G1 X66.913 Y14.826 E12.12997 F1800.000
G1 X68.638 Y14.971 E12.15395
G1 X70.332 Y15.204 E12.17764
G1 X72.181 Y15.561 E12.20373
G1 X73.919 Y15.988 E12.22852
G1 X74.774 Y16.235 E12.24085
G1 X94.208 Y16.237 E12.51006
G1 X95.067 Y16.773 E12.52409
G1 X98.349 Y23.590 E12.62889
G1 X98.433 Y23.717 E12.63100
G1 X98.593 Y24.224 E12.63837
G1 X98.594 Y30.138 E12.72029
G1 X97.559 Y31.173 E12.74057
G1 X85.885 Y31.172 E12.90228
G1 X85.407 Y31.034 E12.90917
G1 X83.053 Y29.578 E12.94752
G1 X78.831 Y27.511 E13.01263
G1 X74.296 Y25.743 E13.08006
G1 X68.913 Y24.092 E13.15806
G1 X63.622 Y23.161 E13.23247
G1 X58.444 Y22.937 E13.30428
G1 X53.546 Y23.415 E13.37244
G1 X47.516 Y25.511 E13.46088
G1 X42.494 Y28.917 E13.54494
G1 X41.118 Y30.546 E13.57447
G1 X40.657 Y30.948 E13.58296
G1 X40.057 Y31.173 E13.59183
G1 X32.602 Y31.173 E13.69510
G1 X31.567 Y30.138 E13.71538
G1 X31.572 Y24.205 E13.79756
G1 X31.732 Y23.710 E13.80477
G1 X31.815 Y23.586 E13.80683
G1 X34.846 Y17.281 E13.90374
G1 X35.158 Y17.374 F9000.000
G1 X35.332 Y17.015 E13.90927 F1800.000
G1 X35.999 Y16.577 E13.92032
G1 X36.474 Y16.557 E13.92691
G1 X55.513 Y16.557 E14.19064
G1 X56.419 Y16.297 E14.20370
G1 X58.134 Y15.875 E14.22817
G1 X59.973 Y15.520 E14.25411
G1 X61.660 Y15.289 E14.27770
G1 X63.390 Y15.144 E14.30175
G1 X65.139 Y15.096 E14.32599
G1 X66.884 Y15.146 E14.35017 F1800.000
G1 X68.598 Y15.290 E14.37400
G1 X70.282 Y15.522 E14.39754
G1 X72.109 Y15.874 E14.42331
G1 X73.836 Y16.299 E14.44796
G1 X74.728 Y16.556 E14.46081
G1 X94.116 Y16.559 E14.72938
G1 X94.818 Y16.997 E14.74086
G1 X98.070 Y23.752 E14.84471
G1 X98.141 Y23.859 E14.84649
G1 X98.272 Y24.274 E14.85252
G1 X98.273 Y30.005 E14.93190
G1 X97.426 Y30.852 E14.94849
G1 X85.931 Y30.850 E15.10773
G1 X85.539 Y30.738 E15.11337
G1 X83.209 Y29.297 E15.15132
G1 X78.961 Y27.217 E15.21685
G1 X74.406 Y25.441 E15.28457
G1 X68.988 Y23.779 E15.36307
G1 X63.657 Y22.841 E15.43806
G1 X58.435 Y22.615 E15.51047
G1 X53.477 Y23.099 E15.57947
G1 X47.370 Y25.222 E15.66903
G1 X42.282 Y28.670 E15.75419
G1 X40.897 Y30.312 E15.78394
G1 X40.489 Y30.668 E15.79144
G1 X39.998 Y30.852 E15.79870
G1 X32.735 Y30.852 E15.89931
G1 X31.888 Y30.005 E15.91591
G1 X31.893 Y24.259 E15.99550
G1 X32.023 Y23.853 E16.00140
G1 X32.094 Y23.748 E16.00316
G1 X35.136 Y17.421 E16.10040
G1 X35.448 Y17.514 F9000.000
G1 X35.583 Y17.235 E16.10470 F1800.000
G1 X36.101 Y16.894 E16.11329
G1 X36.453 Y16.879 E16.11817
G1 X55.560 Y16.879 E16.38285
G1 X56.499 Y16.608 E16.39639
G1 X58.209 Y16.187 E16.42078
G1 X60.021 Y15.838 E16.44635
G1 X61.697 Y15.608 E16.46978
G1 X63.413 Y15.465 E16.49363
G1 X65.159 Y15.418 E16.51783
G1 X66.856 Y15.466 E16.54134 F1800.000
G1 X68.559 Y15.609 E16.56501
G1 X70.231 Y15.839 E16.58840
G1 X72.036 Y16.187 E16.61386
G1 X73.754 Y16.610 E16.63837
G1 X74.681 Y16.878 E16.65174
G1 X94.024 Y16.880 E16.91968
G1 X94.570 Y17.221 E16.92861
G1 X97.791 Y23.914 E17.03149
G1 X97.849 Y24.001 E17.03295
G1 X97.951 Y24.324 E17.03764
G1 X97.952 Y29.872 E17.11448
G1 X97.293 Y30.530 E17.12739
G1 X85.976 Y30.529 E17.28416
G1 X85.671 Y30.442 E17.28855
G1 X83.366 Y29.016 E17.32610
G1 X79.090 Y26.922 E17.39205
G1 X74.516 Y25.139 E17.46005
G1 X69.063 Y23.466 E17.53906
G1 X63.692 Y22.521 E17.61461
G1 X58.426 Y22.293 E17.68763
G1 X53.408 Y22.783 E17.75748
G1 X47.224 Y24.932 E17.84817
G1 X42.081 Y28.413 E17.93419
G1 X40.676 Y30.079 E17.96438
G1 X40.322 Y30.388 E17.97089
G1 X39.940 Y30.531 E17.97653
G1 X32.868 Y30.530 E18.07450
G1 X32.210 Y29.872 E18.08740
G1 X32.213 Y24.312 E18.16441
G1 X32.315 Y23.997 E18.16900
G1 X32.373 Y23.910 E18.17045
G1 X35.425 Y17.561 E18.26803
G1 X35.737 Y17.654 F9000.000
G1 X35.833 Y17.455 E18.27110 F1800.000
G1 X36.204 Y17.212 E18.27724
G1 X36.464 Y17.200 E18.28084
G1 X55.606 Y17.200 E18.54602
G1 X56.579 Y16.919 E18.56005
G1 X58.284 Y16.500 E18.58436
G1 X60.069 Y16.156 E18.60955
G1 X61.734 Y15.927 E18.63283
G1 X63.435 Y15.785 E18.65647
G1 X65.130 Y15.739 E18.67997
G1 X66.827 Y15.787 E18.70348 F1800.000
G1 X68.519 Y15.928 E18.72700
G1 X70.181 Y16.157 E18.75024
G1 X71.963 Y16.500 E18.77537
G1 X73.671 Y16.920 E18.79975
G1 X74.634 Y17.199 E18.81364
G1 X93.931 Y17.201 E19.08095
G1 X94.322 Y17.445 E19.08733
G1 X97.557 Y24.144 E19.19038
G1 X97.629 Y24.375 E19.19373
G1 X97.630 Y29.738 E19.26803
G1 X97.160 Y30.209 E19.27725
G1 X86.021 Y30.208 E19.43155
G1 X85.804 Y30.145 E19.43468
G1 X83.522 Y28.735 E19.47184
G1 X79.219 Y26.628 E19.53821
G1 X74.626 Y24.837 E19.60649
G1 X69.142 Y23.154 E19.68597
G1 X63.727 Y22.201 E19.76213
G1 X58.418 Y21.971 E19.83575
G1 X53.338 Y22.466 E19.90644
G1 X47.078 Y24.643 E19.99826
G1 X41.874 Y28.159 E20.08526
G1 X40.500 Y29.799 E20.11488
G1 X40.155 Y30.107 E20.12130
G1 X39.882 Y30.209 E20.12534
G1 X33.002 Y30.209 E20.22065
G1 X32.531 Y29.738 E20.22987
G1 X32.533 Y24.366 E20.30429
G1 X32.606 Y24.141 E20.30757
G1 X35.714 Y17.702 E20.40661
G1 X36.306 Y17.529 F9000.000
G1 X55.653 Y17.521 E20.67462 F1800.000
G1 X56.660 Y17.230 E20.68914
G1 X58.359 Y16.812 E20.71337
G1 X60.117 Y16.474 E20.73818
G1 X61.771 Y16.246 E20.76131
G1 X63.457 Y16.106 E20.78474
G1 X65.126 Y16.060 E20.80787
G1 X66.798 Y16.107 E20.83104
G1 X68.480 Y16.247 E20.85442
G1 X70.131 Y16.474 E20.87751
G1 X71.890 Y16.813 E20.90232
G1 X73.589 Y17.231 E20.92655
G1 X74.588 Y17.520 E20.94096
G1 X93.839 Y17.523 E21.20765
G1 X94.074 Y17.669 E21.21147
G1 X97.265 Y24.286 E21.31325
G1 X97.308 Y24.425 E21.31525
G1 X97.309 Y29.605 E21.38702
G1 X97.027 Y29.888 E21.39255
G1 X86.066 Y29.886 E21.54438
G1 X85.936 Y29.849 E21.54626
G1 X83.678 Y28.454 E21.58302
G1 X79.348 Y26.333 E21.64981
G1 X74.737 Y24.535 E21.71837
G1 X69.222 Y22.843 E21.79828
G1 X63.762 Y21.881 E21.87509
G1 X58.409 Y21.649 E21.94931
G1 X53.269 Y22.150 E22.02085
G1 X46.932 Y24.353 E22.11379
G1 X41.823 Y27.821 E22.19933
G1 X41.667 Y27.906 E22.20178
G1 X40.261 Y29.584 E22.23210
G1 X39.987 Y29.827 E22.23717
G1 X39.824 Y29.888 E22.23960
G1 X33.135 Y29.888 E22.33226
G1 X32.852 Y29.605 E22.33779
G1 X32.854 Y24.420 E22.40962
G1 X32.897 Y24.284 E22.41159
G1 X36.084 Y17.675 E22.51324
G1 X36.262 Y17.558 E22.51619
G1 X36.409 Y17.846 F9000.000
G1 X55.700 Y17.843 E22.78342 F1800.000
G1 X56.740 Y17.541 E22.79843
G1 X58.433 Y17.125 E22.82258
G1 X60.165 Y16.791 E22.84702
G1 X61.831 Y16.563 E22.87031
G1 X63.479 Y16.427 E22.89321
G1 X65.117 Y16.381 E22.91592
G1 X66.770 Y16.427 E22.93882
G1 X68.436 Y16.565 E22.96198
G1 X70.081 Y16.792 E22.98498
G1 X71.817 Y17.126 E23.00947
G1 X73.506 Y17.541 E23.03357
G1 X74.541 Y17.842 E23.04850
G1 X93.747 Y17.844 E23.31455
G1 X93.825 Y17.893 E23.31583
G1 X93.913 Y18.071 E23.31857
G1 X96.987 Y24.475 E23.41698
G1 X96.988 Y29.472 E23.48621
G1 X96.893 Y29.566 E23.48805
G1 X86.111 Y29.565 E23.63741
G1 X83.835 Y28.173 E23.67438
G1 X79.477 Y26.039 E23.74159
G1 X74.847 Y24.233 E23.81043
G1 X69.303 Y22.531 E23.89077
G1 X63.797 Y21.561 E23.96822
G1 X58.416 Y21.327 E24.04284
G1 X53.207 Y21.832 E24.11532
G1 X46.786 Y24.064 E24.20950
G1 X41.649 Y27.551 E24.29550
G1 X41.460 Y27.652 E24.29847
G1 X40.022 Y29.368 E24.32949
G1 X39.820 Y29.546 E24.33322
G1 X39.765 Y29.567 E24.33403
G1 X33.268 Y29.566 E24.42404
G1 X33.174 Y29.472 E24.42588
G1 X33.174 Y24.473 E24.49513
G1 X36.255 Y18.060 E24.59369
G1 X36.335 Y17.895 E24.59623
G1 X36.365 Y17.875 E24.59673
G1 E22.59673 F2400.00000
G92 E0
G1 X93.179 Y18.835 F9000.000
G1 E2.00000 F2400.00000
M204 S1400
G1 X95.997 Y24.689 E2.09000 F1500.000
G1 X95.997 Y28.575 E2.14383
G1 X86.370 Y28.574 E2.27719
G1 X84.321 Y27.308 E2.31055
G1 X79.882 Y25.133 E2.37903
G1 X75.180 Y23.299 E2.44895
G1 X69.531 Y21.565 E2.53080
G1 X63.894 Y20.572 E2.61009
G1 X58.378 Y20.332 E2.68657
G1 X53.037 Y20.847 E2.76090
G1 X46.316 Y23.178 E2.85945
G1 X41.133 Y26.704 E2.94629
G1 X40.794 Y26.884 E2.95161
G1 X39.392 Y28.576 E2.98204
G1 X34.164 Y28.576 E3.05446
G1 X34.165 Y24.689 E3.10829
G1 X36.982 Y18.835 E3.19829
G1 X55.867 Y18.833 E3.45990
G1 X56.998 Y18.498 E3.47624
G1 X58.648 Y18.092 E3.49979
G1 X60.324 Y17.770 E3.52343
G1 X61.918 Y17.551 E3.54572
G1 X63.536 Y17.416 E3.56820
G1 X65.129 Y17.373 E3.59027
G1 X66.710 Y17.416 E3.61218
G1 X68.330 Y17.551 E3.63470
G1 X69.921 Y17.770 E3.65696
G1 X71.603 Y18.094 E3.68068
G1 X73.248 Y18.498 E3.70414
G1 X74.374 Y18.833 E3.72042
G1 X93.127 Y18.835 E3.98020
M204 S700
G1 X93.381 Y18.513 F9000.000
M204 S1400
G1 X96.318 Y24.616 E4.07401 F1500.000
G1 X96.318 Y28.897 E4.13331
G1 X86.279 Y28.895 E4.27238
G1 X84.166 Y27.589 E4.30679
G1 X79.753 Y25.427 E4.37486
G1 X75.074 Y23.603 E4.44443
G1 X69.456 Y21.878 E4.52584
G1 X63.859 Y20.892 E4.60457
G1 X58.387 Y20.654 E4.68045
G1 X53.106 Y21.163 E4.75393
G1 X46.462 Y23.468 E4.85136
G1 X41.299 Y26.979 E4.93785
G1 X41.001 Y27.138 E4.94253
G1 X39.543 Y28.897 E4.97418
G1 X33.843 Y28.897 E5.05314
G1 X33.843 Y24.616 E5.11244
G1 X36.780 Y18.513 E5.20625
G1 X55.820 Y18.512 E5.47001
G1 X56.914 Y18.188 E5.48581
G1 X58.580 Y17.778 E5.50958
G1 X60.272 Y17.453 E5.53345
G1 X61.883 Y17.231 E5.55598
G1 X63.518 Y17.095 E5.57870
G1 X65.129 Y17.051 E5.60102
G1 X66.727 Y17.095 E5.62318
G1 X68.365 Y17.231 E5.64594
G1 X69.973 Y17.453 E5.66843
G1 X71.672 Y17.780 E5.69239
G1 X73.332 Y18.188 E5.71607
G1 X74.421 Y18.511 E5.73180
G1 X93.329 Y18.513 E5.99374
M204 S700
G1 X93.583 Y18.192 F9000.000
M204 S1400
G1 X96.639 Y24.543 E6.09136 F900.000
G1 X96.639 Y29.218 E6.15613
G1 X86.187 Y29.217 E6.30092
G1 X84.010 Y27.871 E6.33637
G1 X79.624 Y25.722 E6.40404
G1 X74.968 Y23.907 E6.47326
G1 X69.381 Y22.191 E6.55423
G1 X63.824 Y21.212 E6.63239
G1 X58.395 Y20.976 E6.70766
G1 X53.175 Y21.479 E6.78031
G1 X46.607 Y23.757 E6.87661
G1 X41.465 Y27.255 E6.96275
G1 X41.208 Y27.392 E6.96679
G1 X39.768 Y29.130 E6.99806
G1 X39.666 Y29.218 E6.99993
G1 X33.522 Y29.218 E7.08504
G1 X33.522 Y24.543 E7.14981
G1 X36.578 Y18.192 E7.24744
G1 X55.774 Y18.191 E7.51335
G1 X56.830 Y17.878 E7.52861
G1 X58.511 Y17.464 E7.55259
G1 X60.220 Y17.135 E7.57670
G1 X61.848 Y16.912 E7.59947
G1 X63.500 Y16.774 E7.62243
G1 X65.129 Y16.730 E7.64500
G1 X66.745 Y16.774 E7.66740
G1 X68.400 Y16.912 E7.69040
G1 X70.026 Y17.135 E7.71314
G1 X71.741 Y17.466 E7.73733
G1 X73.416 Y17.878 E7.76123
G1 X74.467 Y18.190 E7.77642
G1 X93.531 Y18.192 E8.04050
M204 S700
G1 X93.506 Y18.533 F9000.000
G1 X93.139 Y19.187 F9000.000
M204 S1000
G1 X92.940 Y18.988 E8.04441 F2550.000
G1 X92.484 Y18.987 E8.05074
G1 X93.561 Y20.065 E8.07190
M204 S700
G1 X93.984 Y20.943 F9000.000
M204 S1000
G1 X92.029 Y18.987 E8.11030 F2550.000
G1 X91.573 Y18.987 E8.11663
G1 X94.407 Y21.821 E8.17228
M204 S700
G1 X94.829 Y22.699 F9000.000
M204 S1000
G1 X91.117 Y18.987 E8.24517 F2550.000
G1 X90.662 Y18.987 E8.25150
G1 X95.252 Y23.577 E8.34164
M204 S700
G1 X95.674 Y24.455 F9000.000
M204 S1000
G1 X90.206 Y18.987 E8.44903 F2550.000
G1 X89.750 Y18.987 E8.45536
G1 X95.844 Y25.081 E8.57502
G1 X95.844 Y25.536 E8.58135
G1 X89.295 Y18.987 E8.70997
G1 X88.839 Y18.987 E8.71629
G1 X95.844 Y25.992 E8.85386
G1 X95.844 Y26.447 E8.86018
G1 X88.383 Y18.987 E9.00670
G1 X87.928 Y18.987 E9.01302
G1 X95.844 Y26.903 E9.16848
G1 X95.844 Y27.359 E9.17481
G1 X87.472 Y18.987 E9.33922
G1 X87.017 Y18.987 E9.34555
